X: 22052
T: Knockawhinna, The
R: jig
M: 6/8
K: Gmajor
|:F|DGF G2 A|BdG ABc|dgf d>ed|ded cAF|
D2 G G2 A|B/c/dG AA/B/c|dgf d>ed|cAF G2:|
K: D Major
|:F/G/|AFA d2 e|faf g2 e|dfd ecA|GBG AE/F/G|
AF/G/A d2 e|f/g/af gec|af/g/a gec|Adc d2:|
K: G Major
|:c|B/c/dB GBd|g2 g ece|dB/c/d cAc|BG/A/B AFD|
d^cd GB/=c/d|gba gfa|gdB cAd|AGF G2:|

